X:1
T:Matthews, 83.83
T:Matthews, 83.83
T:Richard Norton Matthews (1869-?)
T:Public Domain Courtesy of the Cyber Hymnal™
C:Richard Norton Matthews (1869-?)
Z:Public Domain
Z:Courtesy of the Cyber Hymnal™
%%score ( 1 2 ) ( 3 4 )
L:1/8
M:4/4
K:G
V:1 treble 
V:2 treble 
V:3 bass 
V:4 bass 
V:1
 [B,G]2 | [CF]2 [CE]2 D2 ([DE][DF]) | [DG]2 [DA]2 [DB]2 [DB]2 | [EB]4 [EA]4 | [^DB]6 [=DB][DB] | %5
 [Dd]2 [Dc][Dc] [DB]2 [FA]2 | GG [EA]2 [DF]2 [DG]2 | [CE]4 [CF]4 | [B,G]6 |] %9
V:2
 x2 | x4 D2 x2 | x8 | x8 | x8 | x8 | GG x6 | x8 | x6 |] %9
V:3
 G,2 | [D,A,]2 [D,G,]2 [D,F,]2 ([C,A,][C,A,]) | [B,,G,]2 [D,F,]2 G,2 G,2 | [C,G,]4 [C,E,]4 | %4
 [B,,F,]6 G,G, | [F,A,]2 [F,A,][F,A,] [G,B,]2 [D,C]2 | [E,B,][E,B,] [C,A,]2 [D,A,]2 [B,,G,]2 | %7
 [C,G,]4 D,4 | [G,,D,]6 |] %9
V:4
 G,2 | x8 | x4 G,2 G,2 | x8 | x6 G,G, | x8 | x8 | x4 D,4 | x6 |] %9

